X: 9355
T: Dancing Grass, The
R: jig
M: 6/8
K: Dmajor
|:d2e f2d|dBA A3|d2e f2a|afe edB|
d2e f2d|dBA A2a|afe fed|dBA d3:|
|:f2a afa|baf fed|f2a afa|baf f3|
f2a afa|baf fed'|d'ba baf|fed d3:|

